X:1
T:We Have Come to Worship You, O Lord
T:We Have Come to Worship You, O Lord
T:Scott Werdebaugh, 2009
T:Scott Werdebaugh, adapted from unknown source
T:© 2009 Scott Werdebaugh and New Heart Music - Copy &amp; use freely for Christian worship or devotions without any changes. All other rights reserved.
T:© 2009 Scott Werdebaugh and New Heart Music - Copy &amp; use freely for Christian worship or devotions without any changes. All other rights reserved.
T:© 2009 Scott Werdebaugh and New Heart Music - Copy &amp; use freely for Christian worship or devotions without any changes. All other rights reserved.
C:Scott Werdebaugh, 2009
Z:© 2009 Scott Werdebaugh and New Heart Music - Copy & use freely for
Z:Christian worship or devotions without any changes. All other rights reserved.
%%score ( 1 2 ) ( 3 4 ) ( 5 6 ) ( 7 8 )
L:1/8
Q:1/4=120
M:4/4
K:C
V:1 treble 
V:2 treble 
V:3 bass 
V:4 bass 
V:5 treble 
V:6 treble 
V:7 bass 
V:8 bass 
V:1
"^Prayerfully and worshipfully"!p! C[B,D] | [CE]2 [CE]2 [CF]2 [CF]2 | [B,G]3 [B,D] [CE]2 [EG][EG] | %3
w: 1.~We have|come to sing Your|prais- es, Lord, We have|
w: 2.~I have|come to sing Your|prais- es, Lord, I have|
 [FA]3 [FA] [DG]2 [DF]2 | [EG]6 z [EG][EG] | [FA]2 [FA]2 [DB]2 [DB]2 | [Ec]3 [EG] [EG]2 [EA]2 | %7
w: come to wor- ship|You; We have|come to hear Your|still small voice In|
w: come to wor- ship|You; I have|come to hear Your|still small voice In|
 [DB]3 [DB] [DB]2 [CA]2 | [B,G]6 z!mp! [DB]2 | [Ec]2 [Fc]2 [Gc]2 [EB]2 | [FB]3 [FA] [FA]2 [EA]2 | %11
w: ev- ’ry thing we|do. Teach|us Your Ho- ly|Word, O Lord, Your|
w: ev- ’ry thing I|do. Teach|me Your Ho- ly|Word, O Lord, Your|
 [Fd]3 [Fd] [^Fd]2 [Fc]2 |!mf! [GB]6 z!mp! [DG]2 | [Ec]2 [=Fc]2 [Gc]2 [EB]2 | %14
w: Wis- dom and Your|Pow’r; We’ve|come to set our-|
w: Wis- dom and Your|Pow’r; I’ve|come to set my-|
 [FB]3 [FA] [CG]2 [CE]2 | [CF]3 [CE] [B,E]2 [B,D]2 |!p! C6"^Play 2 times" z :| %17
w: selves a- part For|You this ho- ly|hour.|
w: self a- part For|You this ho- ly|hour.|
V:2
 C x | x8 | x8 | x8 | x9 | x8 | x8 | x8 | x9 | x8 | x8 | x8 | x9 | x8 | x8 | x8 | C6 x :| %17
V:3
 [C,E,][G,,G,] | [C,G,]2 [C,G,]2 [F,A,]2 [F,A,]2 | [D,G,]3 [G,,G,] [C,G,]2 [C,G,][C,G,] | %3
 [F,C]3 [F,C] [G,B,]2 [G,B,]2 | [C,C]6 z [C,C][C,C] | [F,C]2 [F,C]2 [G,,G,]2 [G,,G,]2 | %6
 [C,G,]3 [C,G,] [C,C]2 [C,C]2 | [G,,G,]3 [G,,G,] [D,^F,]2 [D,F,]2 | [D,G,]6 z [G,,G,]2 | %9
 [C,G,]2 [D,G,]2 [E,G,]2 [C,G,]2 | [D,F,]3 [D,F,] [C,F,]2 [C,A,]2 | %11
 [D,A,]3 [D,A,] [D,A,]2 [D,A,]2 | [D,G,]6 z [G,B,]2 | [C,G,]2 [D,G,]2 [E,G,]2 [C,G,]2 | %14
 [C,F,]3 [C,F,] [C,E,]2 [C,G,]2 | [C,A,]3 [C,G,] [G,,G,]2 G,F, | [C,E,G,]6 z"^Play 2 times" :| %17
V:4
 x2 | x8 | x8 | x8 | x9 | x8 | x8 | x8 | x9 | x8 | x8 | x8 | x9 | x8 | x8 | x6 G,,2 | x7 :| %17
V:5
!p! CD | E2 E2 F2 F2 | [DG]3 D [CE]2 GG | A3 A G2 F2 | [EG]6 z GG | A2 A2 B2 B2 | c3 G G2 A2 | %7
 B3 B B2 A2 | [B,G]6 z!mp! [DB]2 | [Ec]2 [Fc]2 [Gc]2 [EB]2 | B3 A [FA]2 [EA]2 | d3 d d2 c2 | %12
!mf!!mf! [GB]6 z!mp!!mp! [DG]2 | [Ec]2 [=Fc]2 [Gc]2 [EB]2 | B3 A G2 E2 | F3 E E2 D2 | %16
!p! C6"^Play 2 times" z :| %17
V:6
 x2 | C4 C4 | B,4 E2 x2 | F4 D4 | x7 E2 | F4 D4 | E4 E4 | D4 C4 | x9 | x8 | F4 x4 | F4 ^F4 | x9 | %13
 x8 | F4 C4 | C4 B,4 | C6 x :| %17
V:7
!p! [E,G,][G,B,] | [C,G,]4 [C,A,]4 | [G,,G,]4 [C,G,]2 [E,C]2 | [F,C]4 [G,B,]4 | [C,C]6 z [E,C]2 | %5
 [F,C]4 [G,,F,]4 | [C,G,]4 [C,C]4 | [G,,G,]4 [D,^F,]4 | [D,G,]6 z!mp! [G,,G,]2 | %9
 [C,G,]2 [D,G,]2 [E,G,]2 [C,G,]2 | [D,F,]4 [C,F,]2 [E,C]2 | [D,A,]4 [D,A,]4 | %12
!mf! [D,G,]6 z!mp! [G,B,]2 | [C,G,]2 [D,G,]2 [E,G,]2 [C,G,]2 | [C,F,]4 [C,E,]2 [C,G,]2 | %15
 [C,A,]4 (G,2- [F,G,]2) |!p! [C,E,G,]6 z"^Play 2 times" :| %17
V:8
 x2 | x8 | x8 | x8 | x9 | x8 | x8 | x8 | x9 | x8 | x8 | x8 | x9 | x8 | x8 | x4 G,,4 | x7 :| %17

